**kern	**kern	**dynam
*part1	*part1	*part1
*staff2	*staff1	*
*I"Piano	*	*
*clefF4	*clefG2	*
*k[f#c#g#d#]	*k[f#c#g#d#]	*
=1	=1	=1
(4.B 4.dn	(4.b 4.ddn	.
4d 4f#	4dd 4ff#	.
8c#) 8e	8cc# 8ee	.
=	=	=
2.A 2.c# 2.e	2.cc#) 2.ee	sf
=	=	=
[2.A#X [2.c# [2.gn	[2.e [2.cc#	p
=	=	=
2.A#] 2.c#] 2.g]	2.e] 2.cc#]	.
=	=	=
2.An 2.cn	2.d# 2.f#	.
=	=	=
2.G# 2.B	2.c##X 2.e#X 2.b	.
=	=	=
2.A 2.B	2.d# 2.f# 2.b	sf
=	=	=
2.G#	2.c##X 2.e#X 2.b	p
=	=	=
[2.BB	2.A 2.d# 2.f#	.
=	=	=
2.BB_	[2.G# [2.e	.
=	=	=
*-	*-	*-
!!!system-decoration: {(s1,s2)}
